X: 2
T: Sean Ryan's Champion March
Z: ceolachan
S: https://thesession.org/tunes/6580#setting18255
R: barndance
M: 4/4
L: 1/8
K: Gmaj
|: DG |B>^ABd c>Bce | dGBd gd B/A/G | B>^ABd c2 Bc | AD- D F/A/ G/A/G/F/ ED |
B2 B/c/d c2 ce | dG B/c/d g2 Bg | B>^A B/c/d c2 F=A | G2 GF G2 :|
|: G/A/B/c/ |d2 G/A/B/c/ dgbg | e>cGe cEGe | f/e/d ad fdAd | g/d/B bd gdBd |
BD- DG/B/ dg gf/g/ | e>cGE C2 E/G/e | f/g/f/e/ d>B c/d/c/A/ F/G/A | G2- GF G2 :|
